X:138
T:AIR XLVIII. Auld Rob Morrice.
O:england
B:Joseph Mitchell: "The Highland Fair" (1731)
M:3/4
L:1/8
K:G
(GA/B/)|(G3 E) D2 |E2 G2  g2 | d3 B  (AG)|A3 (cB) A|(GA) (GE) D2|E2 G2 g2  |d3B (AG)|G4||
G(A/B/)| A2A2 (Bd)|e2 e2 (ga)|(bage) (dB)|A3 (cBA) |(GAGE)    D2|E2 G2 g> e|d3B  A>G|G4|]


